X: 23296
T: Leddites, The
R: jig
M: 6/8
K: Dmajor
|:A,DE FED|FAB AFD|GAB Adf|afe dBA|
B2G AGF|EFG ABc|dAF BGD|A,FE D3:|
|:A,DF Adf|gec d2e|fdd cAA|GFG EDE|
D3 EDE|FGA Bcd|Adf gec|Afe d3:|
|:a^ga fdf|FGA DFA|BGE E2 D|CDE A,3|
D3 EDE|FGA Bcd|Adf gec|Afe d3:|

